X: 4
T: The Mist On The Mountain
R: jig
M: 6/8
L: 1/8
K: Ador
a|age a2b|age edB|AGE G2A|BAB deg|G|EAA ABd|edB AGE|~G3 GAB|dBA GED|EAA ABd|edB ABd|efg dBG|BAG A2:|a|age a2b|age edB|AGE G2A|BAB deg|age a2b|age edB|AGE G2A|BAG A2a|age a2b|age edB|AGE G2A|BAB GED|EDE G2A|BAG ABd|efg dBG|BAG A2||


Tune 256	Setting 22803

